X:1
T:Title
%%score { 1 | 2 }
L:1/8
M:4/4
K:Eb
V:1 treble nm="Grand Piano"
V:2 bass 
V:1
 z4 z2 z[Q:1/4=100] E | GGG[FA] [GB][GB][GB][GB] |[M:7/8] [EAc][Ece][EBd] [EAc] [EGB]3 | %3
[M:1/8] [B,EG] |[M:4/4] [B,FA][B,FA][B,FA][B,DB] GGGB |[M:7/8] AGF E [DF]3 |[M:1/8] E | %7
[M:4/4] GGG[FA] [GB][GB][GB][GB] |[M:3/4] [Ac][ce] [Bd][Ac] [GB]2 |[M:1/4] [Ee]2 | %10
[M:4/4] [EG]2 [EG]2 [FA]2 [EG]2 | [DF]4 E2 z2 | [GB]2 [Ge]>[CAc] [EGB]4 | [DB][DF][DF][FA] GccB | %14
 c2 e>c B3 G |[M:7/8] [GB][FA][EG] [DF] E3 |[M:4/4] [GB]2 [Ge]>[CAc] [EGB]4 | %17
 [DB][DF][DF][FA] GccB | c2 e>c B3 G |[M:7/8] [GB][FA][EG] [DF] E3 |] %20
V:2
 z4 z2 z [E,G,] | [E,B,E][E,B,E][E,B,E][E,B,] [E,E][E,E][E,E][E,E] |[M:7/8] A,A,A, A, E,3 | %3
[M:1/8] E, |[M:4/4] D,D,D,B,, [E,B,E][E,B,E][E,B,E][G,B,E] | %5
[M:7/8] [F,B,D][E,B,E][D,B,] [C,=A,C] [B,,B,]3 |[M:1/8] [E,G,] | %7
[M:4/4] [E,B,E][E,B,E][E,B,E][E,B,] [E,E][E,E][E,E][E,E] |[M:3/4] [A,E][A,E] [A,E][A,E] [E,E]2 | %9
[M:1/4] [A,,C]2 |[M:4/4] [B,,B,]2 [B,,B,]2 [B,,B,]2 [B,,B,]2 | [B,,A,]4 [E,G,]2 z2 | %12
 [E,E]2 [E,B,]>E, E,4 | B,,[B,,B,][B,,B,][B,,B,] [E,B,E][E,A,E][E,A,E][E,G,E] | %14
 [A,E]2 [A,CE]>[A,E] [E,G,E]3 [E,B,E] |[M:7/8] [B,,B,][B,,B,][B,,B,] [B,,A,] [E,G,]3 | %16
[M:4/4] [E,E]2 [E,B,]>E, E,4 | B,,[B,,B,][B,,B,][B,,B,] [E,B,E][E,A,E][E,A,E][E,G,E] | %18
 [A,E]2 [A,CE]>[A,E] [E,G,E]3 [E,B,E] |[M:7/8] [B,,B,][B,,B,][B,,B,] [B,,A,] [E,G,]3 |] %20

